extensions/images/svgs/arrow_down.svg

<svg fill="none" height="14" viewBox="0 0 14 14" width="14" xmlns="http://www.w3.org/2000/svg"><path d="m11.1828 5.44221c.2562.25628.2562.6718 0 .92808l-3.71876 3.71871c-.25628.2563-.6718.2563-.92808 0l-3.71875-3.71871c-.25628-.25628-.25628-.6718 0-.92808s.6718-.25628.92808 0l3.25471 3.25471 3.2547-3.25471c.2563-.25628.6718-.25628.9281 0z" fill="#d1d0d6"/></svg>

<svg width="14" height="14" viewBox="0 0 14 14" fill="none" xmlns="http://www.w3.org/2000/svg">
    <path fillRule="evenodd" clipRule="evenodd"
        d="M11.1828 5.44221C11.439 5.69849 11.439 6.11401 11.1828 6.37029L7.46404 10.089C7.20776 10.3453 6.79224 10.3453 6.53596 10.089L2.81721 6.37029C2.56093 6.11401 2.56093 5.69849 2.81721 5.44221C3.07349 5.18593 3.48901 5.18593 3.74529 5.44221L7 8.69692L10.2547 5.44221C10.511 5.18593 10.9265 5.18593 11.1828 5.44221Z"
        fill="#D1D0D6" />
</svg>
